X:971
T:Reel 971
M:4/4
K:Dmaj
L:1/8
 (3ded |c>A (3ABA d>A (3FED |B>e (3ede f>d (3dcd |B>e (3efe g>d (3ecc |d>f (3efe d>c (3dcB ||B>c (3dcd f>d (3dcd |B>d (3dcd f>d (3dcd |e>d (3dcd f>a (3ede |d2 (3dcd :||2d>f (3dcd f>a (3aaf |e2 (3fga e2edcd|edc (3dcd A>d (3dcd | (3Bcd ce ded|
